icon-themes/breeze_svg/cmd/32/insertpagenumberfield.svg

<svg viewBox="0 0 32 32" xmlns="http://www.w3.org/2000/svg"><path d="m6 4v24h10v-1h-9v-22h11v7h7v6h1v-7l-7-7h-1zm13 15v2h-2v1h2v3h-2v1h2v2h1v-2h3v2h1v-2h2v-1h-2v-3h2v-1h-2v-2h-1v2h-3v-2zm1 3h3v3h-3z" fill="#4d4d4d"/></svg>

<svg xmlns="http://www.w3.org/2000/svg" viewBox="0 0 32 32">
 <path 
     style="fill:#4d4d4d" 
     d="M 6 4 L 6 28 L 16 28 L 16 27 L 7 27 L 7 5 L 18 5 L 18 12 L 25 12 L 25 18 L 26 18 L 26 11 L 19 4 L 18 4 L 6 4 z M 19 19 L 19 21 L 17 21 L 17 22 L 19 22 L 19 25 L 17 25 L 17 26 L 19 26 L 19 28 L 20 28 L 20 26 L 23 26 L 23 28 L 24 28 L 24 26 L 26 26 L 26 25 L 24 25 L 24 22 L 26 22 L 26 21 L 24 21 L 24 19 L 23 19 L 23 21 L 20 21 L 20 19 L 19 19 z M 20 22 L 23 22 L 23 25 L 20 25 L 20 22 z "
     />
</svg>
